icomoon/warning.svg

<?xml version="1.0" encoding="utf-8"?>
<!-- Generator: Adobe Illustrator 16.0.0, SVG Export Plug-In . SVG Version: 6.00 Build 0)  -->
<!DOCTYPE svg PUBLIC "-//W3C//DTD SVG 1.1//EN" "http://www.w3.org/Graphics/SVG/1.1/DTD/svg11.dtd">
<svg version="1.1" id="Layer_1" xmlns="http://www.w3.org/2000/svg" xmlns:xlink="http://www.w3.org/1999/xlink" x="0px" y="0px"
	 width="512px" height="512px" viewBox="0 0 512 512" enable-background="new 0 0 512 512" xml:space="preserve">
<path d="M256,79.362L83.583,448h344.834L256,79.362z M256,0L256,0c11.035,0,22.07,7.441,30.441,22.324L504.978,457.88
	c16.745,29.767,2.5,54.12-31.65,54.12H38.673c-34.152,0-48.395-24.354-31.652-54.12L225.558,22.324C233.93,7.441,244.965,0,256,0z
	 M224,384c0,17.673,14.327,32,32,32c17.674,0,32-14.327,32-32c0-17.674-14.326-32-32-32C238.327,352,224,366.326,224,384z M256,192
	c17.673,0,32,14.327,32,32l-10,96h-44l-10-96C224,206.327,238.327,192,256,192z"/>
</svg>

<?xml version="1.0" encoding="utf-8"?> <!-- Generator: IcoMoon.io --> <!DOCTYPE svg PUBLIC "-//W3C//DTD SVG 1.1//EN" "http://www.w3.org/Graphics/SVG/1.1/DTD/svg11.dtd"> <svg width="512" height="512" viewBox="0 0 512 512" xmlns="http://www.w3.org/2000/svg" xmlns:xlink="http://www.w3.org/1999/xlink" fill="#000000"><path d="M 256.00,79.362 L 83.583,448.00 L 428.417,448.00 L 256.00,79.362 Z M 256.00,0.00 L 256.00,0.00 C 267.035,0.00 278.07,7.441 286.442,22.324 L 504.978,457.88 C 521.723,487.646 507.478,512.00 473.327,512.00 L 38.673,512.00 C 4.521,512.00 -9.722,487.646 7.021,457.88 L 225.558,22.324 C 233.93,7.441 244.965,0.00 256.00,0.00 ZM 224.00,384.00A32.00,32.00 2520.00 1,0 288.00,384A32.00,32.00 2520.00 1,0 224.00,384zM 256.00,192.00 C 273.673,192.00 288.00,206.327 288.00,224.00 L 278.00,320.00 L 234.00,320.00 L 224.00,224.00 C 224.00,206.327 238.327,192.00 256.00,192.00 Z" ></path></svg>
